svg/24/camera-input.svg

<svg width="24" height="24" viewBox="0 0 24 24" fill="currentColor" xmlns="http://www.w3.org/2000/svg"><path d="M17 6L15.2969 3.4453C15.1114 3.1671 14.7992 3 14.4648 3H9.53518C9.20083 3 8.8886 3.1671 8.70313 3.4453L7 6H4C2.89543 6 2 6.89543 2 8V10C2 10.4142 2.33579 10.75 2.75 10.75C3.16421 10.75 3.5 10.4142 3.5 10V8C3.5 7.72386 3.72386 7.5 4 7.5H7C7.50153 7.5 7.96988 7.24935 8.24808 6.83205L9.80278 4.5H14.1972L15.7519 6.83205C16.0301 7.24935 16.4985 7.5 17 7.5H20C20.2761 7.5 20.5 7.72386 20.5 8V19C20.5 19.2761 20.2761 19.5 20 19.5H4C3.72386 19.5 3.5 19.2761 3.5 19V16C3.5 15.5858 3.16421 15.25 2.75 15.25C2.33579 15.25 2 15.5858 2 16V19C2 20.1046 2.89543 21 4 21H20C21.1046 21 22 20.1046 22 19V8C22 6.89543 21.1046 6 20 6H17Z"/><path d="M2 13C2 12.5858 2.33579 12.25 2.75 12.25H7.37868L5.90901 10.7803C5.61612 10.4874 5.61612 10.0126 5.90901 9.71967C6.2019 9.42678 6.67678 9.42678 6.96967 9.71967L9.71967 12.4697C10.0126 12.7626 10.0126 13.2374 9.71967 13.5303L6.96967 16.2803C6.67678 16.5732 6.2019 16.5732 5.90901 16.2803C5.61612 15.9874 5.61612 15.5126 5.90901 15.2197L7.37868 13.75H2.75C2.33579 13.75 2 13.4142 2 13Z"/><path d="M10.25 9.96891C10.7821 9.66172 11.3856 9.5 12 9.5C12.6144 9.5 13.2179 9.66172 13.75 9.96891C14.2821 10.2761 14.7239 10.7179 15.0311 11.25C15.3383 11.7821 15.5 12.3856 15.5 13C15.5 13.6144 15.3383 14.2179 15.0311 14.75C14.7239 15.2821 14.2821 15.7239 13.75 16.0311C13.2179 16.3383 12.6144 16.5 12 16.5C11.3856 16.5 10.7821 16.3383 10.25 16.0311C9.89128 15.824 9.43259 15.9469 9.22548 16.3056C9.01837 16.6643 9.14128 17.123 9.5 17.3301C10.2601 17.769 11.1223 18 12 18C12.8777 18 13.7399 17.769 14.5 17.3301C15.2601 16.8913 15.8913 16.2601 16.3301 15.5C16.769 14.7399 17 13.8777 17 13C17 12.1223 16.769 11.2601 16.3301 10.5C15.8913 9.7399 15.2601 9.10871 14.5 8.66987C13.7399 8.23103 12.8777 8 12 8C11.1223 8 10.2601 8.23103 9.5 8.66987C9.14128 8.87698 9.01837 9.33567 9.22548 9.69439C9.43259 10.0531 9.89128 10.176 10.25 9.96891Z"/></svg>

<svg xmlns="http://www.w3.org/2000/svg" width="24" height="24" fill="currentColor" viewBox="0 0 24 24">
  <path d="m17 6-1.703-2.555A1 1 0 0 0 14.465 3h-4.93a1 1 0 0 0-.832.445L7 6H4a2 2 0 0 0-2 2v2a.75.75 0 0 0 1.5 0V8a.5.5 0 0 1 .5-.5h3a1.5 1.5 0 0 0 1.248-.668L9.803 4.5h4.394l1.555 2.332A1.5 1.5 0 0 0 17 7.5h3a.5.5 0 0 1 .5.5v11a.5.5 0 0 1-.5.5H4a.5.5 0 0 1-.5-.5v-3A.75.75 0 0 0 2 16v3a2 2 0 0 0 2 2h16a2 2 0 0 0 2-2V8a2 2 0 0 0-2-2h-3Z"/>
  <path d="M2 13a.75.75 0 0 1 .75-.75h4.629l-1.47-1.47a.75.75 0 1 1 1.06-1.06l2.75 2.75a.75.75 0 0 1 0 1.06l-2.75 2.75a.75.75 0 0 1-1.06-1.06l1.47-1.47H2.75A.75.75 0 0 1 2 13Z"/>
  <path d="M10.25 9.969a3.5 3.5 0 1 1 0 6.062.75.75 0 0 0-.75 1.3 5 5 0 1 0 0-8.661.75.75 0 1 0 .75 1.299Z"/>
</svg>
